public/search.svg

<svg fill="none" height="18" viewBox="0 0 18 18" width="18" xmlns="http://www.w3.org/2000/svg"><path d="m12.7549 11.255h-.79l-.28-.27c.98-1.14 1.57-2.62 1.57-4.23 0-3.59-2.91-6.499995-6.50002-6.499995-3.59 0-6.499997 2.909995-6.499997 6.499995s2.909997 6.5 6.499997 6.5c1.61 0 3.09-.59 4.23002-1.57l.27.28v.79l5 4.99 1.49-1.49zm-6.00002 0c-2.49 0-4.5-2.01-4.5-4.5 0-2.48999 2.01-4.5 4.5-4.5s4.50002 2.01001 4.50002 4.5c0 2.49-2.01002 4.5-4.50002 4.5z" fill="#000"/></svg>

<svg width='18' height='18' viewBox='0 0 18 18' fill='none' xmlns='http://www.w3.org/2000/svg'><path d='M12.7549 11.255H11.9649L11.6849 10.985C12.6649 9.845 13.2549 8.365 13.2549 6.755C13.2549 3.165 10.3449 0.255005 6.75488 0.255005C3.16488 0.255005 0.254883 3.165 0.254883 6.755C0.254883 10.345 3.16488 13.255 6.75488 13.255C8.36488 13.255 9.84488 12.665 10.9849 11.685L11.2549 11.965V12.755L16.2549 17.745L17.7449 16.255L12.7549 11.255ZM6.75488 11.255C4.26488 11.255 2.25488 9.245 2.25488 6.755C2.25488 4.26501 4.26488 2.255 6.75488 2.255C9.24488 2.255 11.2549 4.26501 11.2549 6.755C11.2549 9.245 9.24488 11.255 6.75488 11.255Z' fill='#000000'/></svg>
